assets/Biohazard/Flat/biohazard_flat.svg

<svg width="32" height="32" viewBox="0 0 32 32" fill="none" xmlns="http://www.w3.org/2000/svg">
<path d="M16 30C8.27 30 2 23.73 2 16C2 8.27 8.27 2 16 2C23.73 2 30 8.27 30 16C30 23.73 23.73 30 16 30Z" fill="#FFB02E"/>
<path d="M21.35 13.13C22.4 13.13 23.47 13.4 24.44 13.96C25.68 14.67 26.57 15.75 27.07 16.98C27.19 17.25 26.81 17.46 26.64 17.22C26.24 16.66 25.72 16.17 25.08 15.8C22.7 14.43 19.65 15.27 18.32 17.7C17.04 20.04 17.89 23.01 20.21 24.32C20.84 24.68 21.51 24.88 22.19 24.94C22.48 24.97 22.5 25.4 22.2 25.44C20.88 25.62 19.5 25.38 18.26 24.67C17.29 24.11 16.52 23.32 16 22.41C15.48 23.32 14.71 24.11 13.74 24.67C12.51 25.38 11.12 25.62 9.80997 25.44C9.51997 25.4 9.52997 24.97 9.81997 24.94C10.5 24.88 11.19 24.67 11.83 24.3C14.22 22.93 15.01 19.86 13.57 17.5C12.21 15.27 9.30997 14.5 7.01997 15.75C6.33997 16.12 5.78997 16.63 5.36997 17.22C5.18997 17.46 4.81997 17.26 4.92997 16.98C5.41997 15.75 6.31997 14.67 7.55997 13.96C8.53997 13.4 9.59997 13.13 10.65 13.13C10.12 12.22 9.81997 11.17 9.81997 10.04C9.81997 8.61003 10.31 7.30003 11.12 6.25003C11.3 6.02003 11.67 6.24003 11.55 6.52003C11.26 7.14003 11.1 7.84003 11.1 8.58003C11.1 11.32 13.36 13.55 16.12 13.48C18.73 13.41 20.85 11.29 20.91 8.68003C20.93 7.90003 20.76 7.17003 20.46 6.51003C20.33 6.24003 20.7 6.01003 20.88 6.25003C21.69 7.29003 22.18 8.61003 22.18 10.04C22.18 11.17 21.88 12.22 21.35 13.13ZM14.5 16C14.5 16.83 15.17 17.5 16 17.5C16.83 17.5 17.5 16.83 17.5 16C17.5 15.17 16.83 14.5 16 14.5C15.17 14.5 14.5 15.17 14.5 16Z" fill="black"/>
<path d="M13.53 11.09C13.32 11.2 13.06 11.14 12.91 10.95C12.71 10.7 12.79 10.34 13.07 10.2C13.95 9.75 14.95 9.5 16 9.5C17.05 9.5 18.04 9.75 18.93 10.19C19.21 10.33 19.29 10.69 19.1 10.94C19.09 10.94 19.09 10.95 19.09 10.95C18.94 11.14 18.68 11.2 18.47 11.09C17.73 10.71 16.89 10.5 16 10.5C15.11 10.5 14.27 10.71 13.53 11.09Z" fill="black"/>
<path d="M13.1699 21.2C13.2599 20.98 13.1799 20.73 12.9799 20.6C12.2799 20.14 11.6799 19.52 11.2299 18.75C10.7899 17.98 10.5499 17.15 10.4999 16.32C10.4899 16.08 10.3099 15.89 10.0699 15.85H10.0599C9.74995 15.81 9.47995 16.06 9.49995 16.37C9.54995 17.35 9.82995 18.34 10.3599 19.25C10.8899 20.16 11.5999 20.9 12.4299 21.44C12.6999 21.61 13.0499 21.5 13.1699 21.2Z" fill="black"/>
<path d="M21.85 16.21H21.86C22.2 16.15 22.49 16.43 22.45 16.76C22.22 18.67 21.15 20.34 19.63 21.37C19.35 21.56 18.96 21.42 18.87 21.1V21.09C18.81 20.89 18.89 20.67 19.07 20.55C20.37 19.68 21.27 18.27 21.46 16.64C21.48 16.43 21.64 16.25 21.85 16.21Z" fill="black"/>
</svg>

<svg xmlns="http://www.w3.org/2000/svg" width="32" height="32" fill="none"><path fill="#FFB02E" d="M16 30C8.27 30 2 23.73 2 16S8.27 2 16 2s14 6.27 14 14-6.27 14-14 14Z"/><path fill="#000" d="M21.35 13.13c1.05 0 2.12.27 3.09.83a6.11 6.11 0 0 1 2.63 3.02c.12.27-.26.48-.43.24-.4-.56-.92-1.05-1.56-1.42a4.908 4.908 0 0 0-6.76 1.9c-1.28 2.34-.43 5.31 1.89 6.62.63.36 1.3.56 1.98.62.29.03.31.46.01.5a6.21 6.21 0 0 1-3.94-.77A6.124 6.124 0 0 1 16 22.41a6.18 6.18 0 0 1-6.19 3.03c-.29-.04-.28-.47.01-.5.68-.06 1.37-.27 2.01-.64a4.893 4.893 0 0 0 1.74-6.8c-1.36-2.23-4.26-3-6.55-1.75-.68.37-1.23.88-1.65 1.47-.18.24-.55.04-.44-.24a6.061 6.061 0 0 1 2.63-3.02c.98-.56 2.04-.83 3.09-.83-.53-.91-.83-1.96-.83-3.09 0-1.43.49-2.74 1.3-3.79.18-.23.55-.01.43.27-.29.62-.45 1.32-.45 2.06 0 2.74 2.26 4.97 5.02 4.9 2.61-.07 4.73-2.19 4.79-4.8a4.91 4.91 0 0 0-.45-2.17c-.13-.27.24-.5.42-.26a6.16 6.16 0 0 1 1.3 3.79c0 1.13-.3 2.18-.83 3.09ZM14.5 16c0 .83.67 1.5 1.5 1.5s1.5-.67 1.5-1.5-.67-1.5-1.5-1.5-1.5.67-1.5 1.5Z"/><path fill="#000" d="M13.53 11.09c-.21.11-.47.05-.62-.14a.49.49 0 0 1 .16-.75c.88-.45 1.88-.7 2.93-.7 1.05 0 2.04.25 2.93.69.28.14.36.5.17.75-.01 0-.01.01-.01.01-.15.19-.41.25-.62.14A5.39 5.39 0 0 0 16 10.5c-.89 0-1.73.21-2.47.59ZM13.17 21.2c.09-.22.01-.47-.19-.6a5.55 5.55 0 0 1-1.75-1.85c-.44-.77-.68-1.6-.73-2.43a.501.501 0 0 0-.43-.47h-.01a.495.495 0 0 0-.56.52c.05.98.33 1.97.86 2.88.53.91 1.24 1.65 2.07 2.19.27.17.62.06.74-.24ZM21.85 16.21h.01a.5.5 0 0 1 .59.55 6.533 6.533 0 0 1-2.82 4.61.5.5 0 0 1-.76-.27v-.01c-.06-.2.02-.42.2-.54 1.3-.87 2.2-2.28 2.39-3.91.02-.21.18-.39.39-.43Z"/></svg>
